X: 19626
T: Jaunting Car, The
R: hornpipe
M: 4/4
K: Dmajor
|:(3ABc|d>c (3def e>c A2|d>B (3GAB A>F D2|G>FG>A B>cd>B|e>dc>B A2 B>c|
d>cd>f e>cA>c|d>B G2 A>F (3DEF|G>ec>A [Gg]>e (3ABc|d2 A2 D2:|
|:c>e|g>ec>A^G>AE>A|[CF]>[EA][A,D]>[CF] [Dd]>FA>[Ff]|[^Gg]>Be>d c>dB>c|A2 ^G2 A2 (3EF=G|
A>fd>A B>g e2|d>A (3FGA d>f a2|[cc']>ba<^g =g>eB>c|d>A (3gfe d2:|

